r2d2-shirt_sleeve.svg

<svg viewBox="0 -15 472.4409449 1335.0708661" xmlns="http://www.w3.org/2000/svg"><g fill="none" stroke-width=".756" transform="matrix(1 0 0 -1 113.42335 1305.033066)"><g stroke="#00f"><path d="m-5.66902 965.1783 32.16768 18.57201a7.55906 7.55906 0 0 1 3.00798 9.87335 103.93701 103.93701 0 1 0 188.01554 2.88357 11.33858 11.33858 0 0 1 4.66023-14.49545l29.15645-16.83348a7.55906 7.55906 0 0 0 3.77952-6.54634v-307.31192a7.55906 7.55906 0 0 1 12.90412-5.34506l88.81889 88.8189a7.55906 7.55906 0 0 1 2.214 5.34506v299.23114a236.22047 236.22047 0 0 1 -472.44094 0v-299.23114a7.55906 7.55906 0 0 1 2.21399-5.34506l88.8189-88.8189a7.55906 7.55906 0 0 1 12.90411 5.34506v307.31192a7.55906 7.55906 0 0 0 3.77953 6.54634"/><path d="m35.90551 737.00787a7.55906 7.55906 0 0 1 -7.55905-7.55905v-458.40349a7.55906 7.55906 0 0 1 2.2138-5.39902l.45873-.45873a7.55906 7.55906 0 0 0 0-10.69012l-.45854-.45853a7.55906 7.55906 0 0 1 -2.21399-5.34506v-222.23718a7.55906 7.55906 0 0 1 9.35457-7.34271"/><path d="m35.90551 18.89764h173.85827a7.55906 7.55906 0 0 1 7.55905 7.55905v222.36071a7.55906 7.55906 0 0 1 -2.21399 5.34506l-.41612.41611a7.55906 7.55906 0 0 0 -.0811 10.60777l.57832.59628a7.55906 7.55906 0 0 1 2.13289 5.26271v458.40349a7.55906 7.55906 0 0 1 -7.55905 7.55905h-173.85827"/><path d="m267.16353 252.28715a7.55906 7.55906 0 0 1 7.55688 7.74034 7.55906 7.55906 0 0 1 -7.55679 7.37408h-41.73265a7.55906 7.55906 0 0 1 -7.55665-7.75001 7.55906 7.55906 0 0 1 7.55655-7.36441z"/><path d="m16.39922 252.28378a7.55906 7.55906 0 0 1 7.55896 7.59564 7.55906 7.55906 0 0 1 -7.55896 7.52215h-40.09498a7.55906 7.55906 0 0 1 -7.55887-7.50631 7.55906 7.55906 0 0 1 7.55887-7.61148z"/><circle cx="248.97638" cy="155.90551" r="7.55906"/><circle cx="-3.30709" cy="155.90551" r="7.55906"/><circle cx="248.97638" cy="354.33071" r="7.55906"/><circle cx="-3.30709" cy="344.88189" r="7.55906"/></g><path d="m124.72441 37.79528a7.55906 7.55906 0 0 1 7.55905 7.55905v428.97638a7.55906 7.55906 0 0 1 -7.55905 7.55905h-3.77953a7.55906 7.55906 0 0 1 -7.55905-7.55905v-428.97638a7.55906 7.55906 0 0 1 7.55905-7.55905z" stroke="#f00"/><path d="m276.37823 763.46457a7.55906 7.55906 0 0 1 7.55905-7.55906h46.29921a7.55906 7.55906 0 0 1 7.55906 7.55906v268.34645a7.55906 7.55906 0 0 1 -7.55906 7.55906h-46.29921a7.55906 7.55906 0 0 1 -7.55905-7.55906z" stroke="#f00"/><path d="m54.49214 961.06193a7.55906 7.55906 0 0 1 -10.31545-.35008l-13.61596-13.61596a7.55906 7.55906 0 0 1 -2.214-5.34506v-178.28626a7.55906 7.55906 0 0 1 7.55905-7.55906h173.85827a7.55906 7.55906 0 0 1 7.55906 7.55906v178.28621a7.55906 7.55906 0 0 1 -2.214 5.34505l-13.61599 13.616a7.55906 7.55906 0 0 1 -10.31544.35008 103.93701 103.93701 0 0 0 -136.68554.00002" stroke="#f00"/><circle cx="122.83492" cy="1039.37008" r="94.48819" stroke="#f00"/><path d="m94.48819 498.89764a7.55906 7.55906 0 0 1 7.55905-7.55906h41.57481a7.55906 7.55906 0 0 1 7.55905 7.55906v98.26771a7.55906 7.55906 0 0 1 -7.55905 7.55906h-41.57481a7.55906 7.55906 0 0 1 -7.55905-7.55906z" stroke="#f00"/><path d="m85.03937 621.73228a7.55906 7.55906 0 0 1 7.55906-7.55905h60.47244a7.55906 7.55906 0 0 1 7.55905 7.55905v41.57481a7.55906 7.55906 0 0 1 -7.55905 7.55905h-60.47244a7.55906 7.55906 0 0 1 -7.55906-7.55905z" stroke="#f00"/><path d="m-84.56666 1039.37008a7.55906 7.55906 0 0 1 -7.55905-7.55906v-46.29921a7.55906 7.55906 0 0 1 7.55905-7.55905h46.29922a7.55906 7.55906 0 0 1 7.55905 7.55905v46.29921a7.55906 7.55906 0 0 1 -7.55905 7.55906z" stroke="#f00"/><path d="m-84.56666 921.25984a7.55906 7.55906 0 0 1 -7.55905-7.55905v-46.29922a7.55906 7.55906 0 0 1 7.55905-7.55905h46.29922a7.55906 7.55906 0 0 1 7.55905 7.55905v46.29922a7.55906 7.55906 0 0 1 -7.55905 7.55905z" stroke="#f00"/><path d="m299.05539 1024.25197a7.55906 7.55906 0 0 1 -7.55905-7.55906v-238.11023a7.55906 7.55906 0 0 1 7.55905-7.55906h16.06299a7.55906 7.55906 0 0 1 7.55906 7.55906v238.11023a7.55906 7.55906 0 0 1 -7.55906 7.55906z" stroke="#0f0"/><circle cx="-61.41732" cy="890.55118" r="22.67717" stroke="#0f0"/><circle cx="-61.41732" cy="1008.66142" r="22.67717" stroke="#0f0"/></g></svg>

<?xml version="1.0" encoding="UTF-8" standalone="no"?>
<!-- Created by SaveAsSVG AddIn Version 1.382 for Fusion 360 (https://icarussoftlandings.com/app/product/saveassvg/) -->
<svg xmlns="http://www.w3.org/2000/svg"
  version="1.1"
  id="svg2"
  viewBox="0 -15 472.4409449 1335.0708661">
  <g>
    <!-- Perimeter -->
      <path
        fill="none"
        style="stroke:rgb(0,0,255);stroke-width:0.756;vector-effect:non-scaling-stroke"
        transform="matrix(1,0,0,-1,113.42335,1305.0330661)"
        d="M -5.66902 965.1783 L 26.49866,983.75031 A 7.55906 7.55906,0,0, 1, 29.50664 993.62366 A 103.93701 103.93701,0,1, 0, 217.52218 996.50723 A 11.33858 11.33858,0,0, 1, 222.18241 982.01178 L 251.33886,965.1783 A 7.55906 7.55906,0,0, 0, 255.11838 958.63196 L 255.11838,651.32004 A 7.55906 7.55906,0,0, 1, 268.0225 645.97498 L 356.84139,734.79388 A 7.55906 7.55906,0,0, 1, 359.05539 740.13894 L 359.05539,1039.37008 A 236.22047 236.22047,0,0, 1, -113.38555 1039.37008 L -113.38555,740.13894 A 7.55906 7.55906,0,0, 1, -111.17156 734.79388 L -22.35266,645.97498 A 7.55906 7.55906,0,0, 1, -9.44855 651.32004 L -9.44855,958.63196 A 7.55906 7.55906,0,0, 0, -5.66902 965.1783  " />
      <path
        fill="none"
        style="stroke:rgb(0,0,255);stroke-width:0.756;vector-effect:non-scaling-stroke"
        transform="matrix(1,0,0,-1,113.42335,1305.0330661)"
        d="M 35.90551 737.00787 A 7.55906 7.55906,0,0, 1, 28.34646 729.44882 L 28.34646,271.04533 A 7.55906 7.55906,0,0, 1, 30.56026 265.64631 L 31.01899,265.18758 A 7.55906 7.55906,0,0, 0, 31.01899 254.49746 L 30.56045,254.03893 A 7.55906 7.55906,0,0, 1, 28.34646 248.69387 L 28.34646,26.45669 A 7.55906 7.55906,0,0, 1, 37.70103 19.11398  " />
      <path
        fill="none"
        style="stroke:rgb(0,0,255);stroke-width:0.756;vector-effect:non-scaling-stroke"
        transform="matrix(1,0,0,-1,113.42335,1305.0330661)"
        d="M 35.90551 18.89764 L 209.76378,18.89764 A 7.55906 7.55906,0,0, 1, 217.32283 26.45669 L 217.32283,248.8174 A 7.55906 7.55906,0,0, 1, 215.10884 254.16246 L 214.69272,254.57857 A 7.55906 7.55906,0,0, 0, 214.61162 265.18634 L 215.18994,265.78262 A 7.55906 7.55906,0,0, 1, 217.32283 271.04533 L 217.32283,729.44882 A 7.55906 7.55906,0,0, 1, 209.76378 737.00787 L 35.90551,737.00787  " />
      <path
        fill="none"
        style="stroke:rgb(0,0,255);stroke-width:0.756;vector-effect:non-scaling-stroke"
        transform="matrix(1,0,0,-1,113.42335,1305.0330661)"
        d="M 267.16353 252.28715 A 7.55906 7.55906,0,0, 1, 274.72041 260.02749 A 7.55906 7.55906,0,0, 1, 267.16362 267.40157 L 225.43097,267.40157 A 7.55906 7.55906,0,0, 1, 217.87432 259.65156 A 7.55906 7.55906,0,0, 1, 225.43087 252.28715 Z  " />
      <path
        fill="none"
        style="stroke:rgb(0,0,255);stroke-width:0.756;vector-effect:non-scaling-stroke"
        transform="matrix(1,0,0,-1,113.42335,1305.0330661)"
        d="M 16.39922 252.28378 A 7.55906 7.55906,0,0, 1, 23.95818 259.87942 A 7.55906 7.55906,0,0, 1, 16.39922 267.40157 L -23.69576,267.40157 A 7.55906 7.55906,0,0, 1, -31.25463 259.89526 A 7.55906 7.55906,0,0, 1, -23.69576 252.28378 Z  " />
      <circle
        fill="none"
        style="stroke:rgb(0,0,255);stroke-width:0.756;vector-effect:non-scaling-stroke"
        transform="matrix(1,0,0,-1,113.42335,1305.0330661)"
        cx="248.97638" cy="155.90551" r="7.55906" />
      <circle
        fill="none"
        style="stroke:rgb(0,0,255);stroke-width:0.756;vector-effect:non-scaling-stroke"
        transform="matrix(1,0,0,-1,113.42335,1305.0330661)"
        cx="-3.30709" cy="155.90551" r="7.55906" />
      <circle
        fill="none"
        style="stroke:rgb(0,0,255);stroke-width:0.756;vector-effect:non-scaling-stroke"
        transform="matrix(1,0,0,-1,113.42335,1305.0330661)"
        cx="248.97638" cy="354.33071" r="7.55906" />
      <circle
        fill="none"
        style="stroke:rgb(0,0,255);stroke-width:0.756;vector-effect:non-scaling-stroke"
        transform="matrix(1,0,0,-1,113.42335,1305.0330661)"
        cx="-3.30709" cy="344.88189" r="7.55906" />
    <!-- Insets -->
      <path
        fill="none"
        style="stroke:rgb(255,0,0);stroke-width:0.756;vector-effect:non-scaling-stroke"
        transform="matrix(1,0,0,-1,113.42335,1305.0330661)"
        d="M 124.72441 37.79528 A 7.55906 7.55906,0,0, 1, 132.28346 45.35433 L 132.28346,474.33071 A 7.55906 7.55906,0,0, 1, 124.72441 481.88976 L 120.94488,481.88976 A 7.55906 7.55906,0,0, 1, 113.38583 474.33071 L 113.38583,45.35433 A 7.55906 7.55906,0,0, 1, 120.94488 37.79528 Z  " />
      <path
        fill="none"
        style="stroke:rgb(255,0,0);stroke-width:0.756;vector-effect:non-scaling-stroke"
        transform="matrix(1,0,0,-1,113.42335,1305.0330661)"
        d="M 276.37823 763.46457 A 7.55906 7.55906,0,0, 1, 283.93728 755.90551 L 330.23649,755.90551 A 7.55906 7.55906,0,0, 1, 337.79555 763.46457 L 337.79555,1031.81102 A 7.55906 7.55906,0,0, 1, 330.23649 1039.37008 L 283.93728,1039.37008 A 7.55906 7.55906,0,0, 1, 276.37823 1031.81102 Z  " />
      <path
        fill="none"
        style="stroke:rgb(255,0,0);stroke-width:0.756;vector-effect:non-scaling-stroke"
        transform="matrix(1,0,0,-1,113.42335,1305.0330661)"
        d="M 54.49214 961.06193 A 7.55906 7.55906,0,0, 1, 44.17669 960.71185 L 30.56073,947.09589 A 7.55906 7.55906,0,0, 1, 28.34673 941.75083 L 28.34673,763.46457 A 7.55906 7.55906,0,0, 1, 35.90578 755.90551 L 209.76405,755.90551 A 7.55906 7.55906,0,0, 1, 217.32311 763.46457 L 217.32311,941.75078 A 7.55906 7.55906,0,0, 1, 215.10911 947.09583 L 201.49312,960.71183 A 7.55906 7.55906,0,0, 1, 191.17768 961.06191 A 103.93701 103.93701,0,0, 0, 54.49214 961.06193  " />
      <circle
        fill="none"
        style="stroke:rgb(255,0,0);stroke-width:0.756;vector-effect:non-scaling-stroke"
        transform="matrix(1,0,0,-1,113.42335,1305.0330661)"
        cx="122.83492" cy="1039.37008" r="94.48819" />
      <path
        fill="none"
        style="stroke:rgb(255,0,0);stroke-width:0.756;vector-effect:non-scaling-stroke"
        transform="matrix(1,0,0,-1,113.42335,1305.0330661)"
        d="M 94.48819 498.89764 A 7.55906 7.55906,0,0, 1, 102.04724 491.33858 L 143.62205,491.33858 A 7.55906 7.55906,0,0, 1, 151.1811 498.89764 L 151.1811,597.16535 A 7.55906 7.55906,0,0, 1, 143.62205 604.72441 L 102.04724,604.72441 A 7.55906 7.55906,0,0, 1, 94.48819 597.16535 Z  " />
      <path
        fill="none"
        style="stroke:rgb(255,0,0);stroke-width:0.756;vector-effect:non-scaling-stroke"
        transform="matrix(1,0,0,-1,113.42335,1305.0330661)"
        d="M 85.03937 621.73228 A 7.55906 7.55906,0,0, 1, 92.59843 614.17323 L 153.07087,614.17323 A 7.55906 7.55906,0,0, 1, 160.62992 621.73228 L 160.62992,663.30709 A 7.55906 7.55906,0,0, 1, 153.07087 670.86614 L 92.59843,670.86614 A 7.55906 7.55906,0,0, 1, 85.03937 663.30709 Z  " />
      <path
        fill="none"
        style="stroke:rgb(255,0,0);stroke-width:0.756;vector-effect:non-scaling-stroke"
        transform="matrix(1,0,0,-1,113.42335,1305.0330661)"
        d="M -84.56666 1039.37008 A 7.55906 7.55906,0,0, 1, -92.12571 1031.81102 L -92.12571,985.51181 A 7.55906 7.55906,0,0, 1, -84.56666 977.95276 L -38.26744,977.95276 A 7.55906 7.55906,0,0, 1, -30.70839 985.51181 L -30.70839,1031.81102 A 7.55906 7.55906,0,0, 1, -38.26744 1039.37008 Z  " />
      <path
        fill="none"
        style="stroke:rgb(255,0,0);stroke-width:0.756;vector-effect:non-scaling-stroke"
        transform="matrix(1,0,0,-1,113.42335,1305.0330661)"
        d="M -84.56666 921.25984 A 7.55906 7.55906,0,0, 1, -92.12571 913.70079 L -92.12571,867.40157 A 7.55906 7.55906,0,0, 1, -84.56666 859.84252 L -38.26744,859.84252 A 7.55906 7.55906,0,0, 1, -30.70839 867.40157 L -30.70839,913.70079 A 7.55906 7.55906,0,0, 1, -38.26744 921.25984 Z  " />
    <!-- Cutouts -->
      <path
        fill="none"
        style="stroke:rgb(0,255,0);stroke-width:0.756;vector-effect:non-scaling-stroke"
        transform="matrix(1,0,0,-1,113.42335,1305.0330661)"
        d="M 299.05539 1024.25197 A 7.55906 7.55906,0,0, 1, 291.49634 1016.69291 L 291.49634,778.58268 A 7.55906 7.55906,0,0, 1, 299.05539 771.02362 L 315.11838,771.02362 A 7.55906 7.55906,0,0, 1, 322.67744 778.58268 L 322.67744,1016.69291 A 7.55906 7.55906,0,0, 1, 315.11838 1024.25197 Z  " />
      <circle
        fill="none"
        style="stroke:rgb(0,255,0);stroke-width:0.756;vector-effect:non-scaling-stroke"
        transform="matrix(1,0,0,-1,113.42335,1305.0330661)"
        cx="-61.41732" cy="890.55118" r="22.67717" />
      <circle
        fill="none"
        style="stroke:rgb(0,255,0);stroke-width:0.756;vector-effect:non-scaling-stroke"
        transform="matrix(1,0,0,-1,113.42335,1305.0330661)"
        cx="-61.41732" cy="1008.66142" r="22.67717" />
  </g>
</svg>
